X: 36296
T: Seamus Ennis'
R: jig
M: 6/8
K: Gmajor
|:dc|BGB def|gdc BAB|GBd gdB|ecA Adc|
BGB def|~g3 BAB|GBd gdc|BGG G:|
|:aB|dcd ~G3|dcd ~G3|ece ~a3|ece ~A3|
d2 B e2 B|d2 B e2 B|def gdc|BGG G:|

